Numix-Light/16/status/indicator-keyboard-Ar-2.svg

<?xml version="1.0" encoding="UTF-8" standalone="no"?>
<svg
   xmlns:dc="http://purl.org/dc/elements/1.1/"
   xmlns:cc="http://creativecommons.org/ns#"
   xmlns:rdf="http://www.w3.org/1999/02/22-rdf-syntax-ns#"
   xmlns:svg="http://www.w3.org/2000/svg"
   xmlns="http://www.w3.org/2000/svg"
   xmlns:sodipodi="http://sodipodi.sourceforge.net/DTD/sodipodi-0.dtd"
   xmlns:inkscape="http://www.inkscape.org/namespaces/inkscape"
   viewBox="0 0 16 16"
   id="svg2"
   version="1.1"
   inkscape:version="0.91 r13725"
   sodipodi:docname="indicator-keyboard-Ar-2.svg">
  <metadata
     id="metadata14">
    <rdf:RDF>
      <cc:Work
         rdf:about="">
        <dc:format>image/svg+xml</dc:format>
        <dc:type
           rdf:resource="http://purl.org/dc/dcmitype/StillImage" />
      </cc:Work>
    </rdf:RDF>
  </metadata>
  <defs
     id="defs12" />
  <sodipodi:namedview
     pagecolor="#ffffff"
     bordercolor="#666666"
     borderopacity="1"
     objecttolerance="10"
     gridtolerance="10"
     guidetolerance="10"
     inkscape:pageopacity="0"
     inkscape:pageshadow="2"
     inkscape:window-width="640"
     inkscape:window-height="480"
     id="namedview10"
     showgrid="false"
     inkscape:zoom="14.75"
     inkscape:cx="8"
     inkscape:cy="8"
     inkscape:window-x="65"
     inkscape:window-y="24"
     inkscape:window-maximized="0"
     inkscape:current-layer="svg2" />
  <path
     style="fill:#353535;fill-opacity:1"
     d="M 1.5996094 0 C 0.71320937 2.9605947e-16 0 0.71320937 0 1.5996094 L 0 14.400391 C 2.9605947e-16 15.286791 0.71320937 16 1.5996094 16 L 14.400391 16 C 15.286791 16 16 15.286791 16 14.400391 L 16 1.5996094 C 16 0.71320937 15.286791 0 14.400391 0 L 1.5996094 0 z M 4.5996094 4.859375 L 5.1386719 4.859375 C 5.3606719 5.321375 5.5715312 5.7821406 5.7695312 6.2441406 C 5.9675313 6.7061406 6.1652812 7.1893594 6.3632812 7.6933594 C 6.5672813 8.1913594 6.774375 8.7231094 6.984375 9.2871094 C 7.194375 9.8451096 7.4219687 10.447703 7.6679688 11.095703 L 6.9941406 11.095703 C 6.8801406 10.789703 6.7719219 10.496844 6.6699219 10.214844 C 6.5679219 9.9328435 6.4690469 9.6567188 6.3730469 9.3867188 L 3.3398438 9.3867188 C 3.2378438 9.6567187 3.1352031 9.9328436 3.0332031 10.214844 C 2.9312031 10.496844 2.82675 10.789703 2.71875 11.095703 L 2.0800781 11.095703 C 2.3200781 10.447703 2.5439063 9.8451096 2.7539062 9.2871094 C 2.9639062 8.7231094 3.1691875 8.1913594 3.3671875 7.6933594 C 3.5711875 7.1893594 3.77075 6.7061406 3.96875 6.2441406 C 4.16675 5.7821406 4.3776094 5.321375 4.5996094 4.859375 z M 4.8515625 5.5605469 C 4.6235625 6.0765469 4.4015469 6.6027187 4.1855469 7.1367188 C 3.9755469 7.6707187 3.7572969 8.2452813 3.5292969 8.8632812 L 6.1835938 8.8632812 C 5.9555938 8.2452813 5.7335781 7.6707187 5.5175781 7.1367188 C 5.3015781 6.6027188 5.0795625 6.0765469 4.8515625 5.5605469 z M 10.113281 6.3535156 C 10.305281 6.3535156 10.484344 6.3684375 10.652344 6.3984375 C 10.826344 6.4284375 10.947672 6.4582812 11.013672 6.4882812 L 10.896484 6.9921875 C 10.848484 6.9681875 10.749609 6.9439219 10.599609 6.9199219 C 10.455609 6.8899219 10.263438 6.875 10.023438 6.875 C 9.7714373 6.875 9.5661563 6.8936875 9.4101562 6.9296875 C 9.2601562 6.9656875 9.1612813 6.9955312 9.1132812 7.0195312 L 9.1132812 11.095703 L 8.5292969 11.095703 L 8.5292969 6.6582031 C 8.6792969 6.5922031 8.8863906 6.5269375 9.1503906 6.4609375 C 9.4143906 6.3889375 9.7352811 6.3535156 10.113281 6.3535156 z M 12.591797 8.7539062 C 12.985697 8.7539062 13.283522 8.851875 13.482422 9.046875 C 13.681322 9.237975 13.779297 9.5044563 13.779297 9.8476562 C 13.779297 9.9997563 13.751866 10.14475 13.697266 10.28125 C 13.642666 10.41385 13.570163 10.543169 13.476562 10.667969 C 13.386863 10.792769 13.283016 10.912297 13.166016 11.029297 C 13.049016 11.146297 12.929494 11.263859 12.808594 11.380859 C 12.707194 11.478359 12.607266 11.578288 12.509766 11.679688 C 12.416166 11.777187 12.331906 11.877116 12.253906 11.978516 C 12.179806 12.076016 12.119066 12.172031 12.072266 12.269531 C 12.029366 12.363131 12.007813 12.457181 12.007812 12.550781 L 12.007812 12.5625 L 13.919922 12.5625 L 13.919922 12.896484 L 11.585938 12.896484 C 11.585938 12.888684 11.583945 12.874969 11.580078 12.855469 L 11.580078 12.755859 C 11.580078 12.572559 11.613388 12.402094 11.679688 12.246094 C 11.745987 12.086194 11.830241 11.937275 11.931641 11.796875 C 12.036941 11.656475 12.152544 11.525197 12.277344 11.404297 C 12.406043 11.283397 12.527531 11.165834 12.644531 11.052734 C 12.742031 10.959134 12.834122 10.869003 12.919922 10.783203 C 13.009622 10.693503 13.087997 10.603366 13.154297 10.509766 C 13.220597 10.416166 13.2735 10.316238 13.3125 10.210938 C 13.3515 10.105638 13.371094 9.9900344 13.371094 9.8652344 C 13.371094 9.5922344 13.296638 9.39825 13.148438 9.28125 C 13.004138 9.16035 12.819956 9.0996094 12.597656 9.0996094 C 12.472856 9.0996094 12.363124 9.1152844 12.265625 9.1464844 C 12.168125 9.1776844 12.081912 9.2149125 12.007812 9.2578125 C 11.937612 9.2968125 11.876872 9.3379594 11.826172 9.3808594 C 11.775472 9.4237594 11.738244 9.4570688 11.714844 9.4804688 L 11.515625 9.2167969 C 11.539025 9.1894969 11.580172 9.1503094 11.638672 9.0996094 C 11.701072 9.0450094 11.777488 8.9921062 11.867188 8.9414062 C 11.960787 8.8907063 12.068553 8.8476 12.189453 8.8125 C 12.310352 8.7735 12.443597 8.7539063 12.591797 8.7539062 z "
     id="path4" />
</svg>

<svg xmlns="http://www.w3.org/2000/svg" viewBox="0 0 16 16">
 <path d="m 1.6 0 c -0.886 0 -1.6 0.713 -1.6 1.6 l 0 12.801 c 0 0.886 0.713 1.6 1.6 1.6 l 12.801 0 c 0.886 0 1.6 -0.713 1.6 -1.6 l 0 -12.801 c 0 -0.886 -0.713 -1.6 -1.6 -1.6 l -12.801 0 z m 3 4.859 l 0.539 0 c 0.222 0.462 0.433 0.923 0.631 1.385 c 0.198 0.462 0.396 0.945 0.594 1.449 c 0.204 0.498 0.411 1.03 0.621 1.594 c 0.21 0.558 0.438 1.161 0.684 1.809 l -0.674 0 c -0.114 -0.306 -0.222 -0.599 -0.324 -0.881 c -0.102 -0.282 -0.201 -0.558 -0.297 -0.828 l -3.033 0 c -0.102 0.27 -0.205 0.546 -0.307 0.828 c -0.102 0.282 -0.206 0.575 -0.314 0.881 l -0.639 0 c 0.24 -0.648 0.464 -1.251 0.674 -1.809 c 0.21 -0.564 0.415 -1.096 0.613 -1.594 c 0.204 -0.504 0.404 -0.987 0.602 -1.449 c 0.198 -0.462 0.409 -0.923 0.631 -1.385 z m 0.252 0.701 c -0.228 0.516 -0.45 1.042 -0.666 1.576 c -0.21 0.534 -0.428 1.109 -0.656 1.727 l 2.654 0 c -0.228 -0.618 -0.45 -1.193 -0.666 -1.727 c -0.216 -0.534 -0.438 -1.06 -0.666 -1.576 z m 5.262 0.793 c 0.192 0 0.371 0.015 0.539 0.045 c 0.174 0.03 0.295 0.06 0.361 0.09 l -0.117 0.504 c -0.048 -0.024 -0.147 -0.048 -0.297 -0.072 c -0.144 -0.03 -0.336 -0.045 -0.576 -0.045 c -0.252 0 -0.457 0.019 -0.613 0.055 c -0.15 0.036 -0.249 0.066 -0.297 0.09 l 0 4.076 l -0.584 0 l 0 -4.437 c 0.15 -0.066 0.357 -0.131 0.621 -0.197 c 0.264 -0.072 0.585 -0.107 0.963 -0.107 z m 2.479 2.4 c 0.394 0 0.692 0.098 0.891 0.293 c 0.199 0.191 0.297 0.458 0.297 0.801 c 0 0.152 -0.027 0.297 -0.082 0.434 c -0.055 0.133 -0.127 0.262 -0.221 0.387 c -0.09 0.125 -0.194 0.244 -0.311 0.361 c -0.117 0.117 -0.237 0.235 -0.357 0.352 c -0.101 0.098 -0.201 0.197 -0.299 0.299 c -0.094 0.097 -0.178 0.197 -0.256 0.299 c -0.074 0.097 -0.135 0.194 -0.182 0.291 c -0.043 0.094 -0.064 0.188 -0.064 0.281 l 0 0.012 l 1.912 0 l 0 0.334 l -2.334 0 c 0 -0.008 -0.002 -0.022 -0.006 -0.041 l 0 -0.1 c 0 -0.183 0.033 -0.354 0.1 -0.51 c 0.066 -0.16 0.151 -0.309 0.252 -0.449 c 0.105 -0.14 0.221 -0.272 0.346 -0.393 c 0.129 -0.121 0.25 -0.238 0.367 -0.352 c 0.098 -0.094 0.19 -0.184 0.275 -0.27 c 0.09 -0.09 0.168 -0.18 0.234 -0.273 c 0.066 -0.094 0.119 -0.194 0.158 -0.299 c 0.039 -0.105 0.059 -0.221 0.059 -0.346 c 0 -0.273 -0.074 -0.467 -0.223 -0.584 c -0.144 -0.121 -0.328 -0.182 -0.551 -0.182 c -0.125 0 -0.235 0.016 -0.332 0.047 c -0.098 0.031 -0.184 0.068 -0.258 0.111 c -0.07 0.039 -0.131 0.08 -0.182 0.123 c -0.051 0.043 -0.088 0.076 -0.111 0.1 l -0.199 -0.264 c 0.023 -0.027 0.065 -0.066 0.123 -0.117 c 0.062 -0.055 0.139 -0.108 0.229 -0.158 c 0.094 -0.051 0.201 -0.094 0.322 -0.129 c 0.121 -0.039 0.254 -0.059 0.402 -0.059 z" style="fill:#353535;fill-opacity:1"/>
</svg>
